!!!!SEGMENT: Wil1001a-Missa_Mente_tota-Kyrie.krn
!!!id: Wil1001a
!!!AGN: Mass; Kyrie
!!!SCT: CRIM
!!!voices: 6
!!!COM: Adrian Willaert
!!!OPR: Missa Mente tota
!!!OTL: Kyrie
**kern	**text	**kern	**text	**kern	**text	**kern	**text	**kern	**text	**kern	**text
*part6	*part6	*part5	*part5	*part4	*part4	*part3	*part3	*part2	*part2	*part1	*part1
*staff6	*staff6	*staff5	*staff5	*staff4	*staff4	*staff3	*staff3	*staff2	*staff2	*staff1	*staff1
*I"Bassus	*	*I"Tenor II	*	*I"Tenor I	*	*I"Altus II	*	*I"Altus I	*	*I"Superius	*
*I'B	*	*I'T. II	*	*I'T. I	*	*I'A. II	*	*I'A. I	*	*I'S	*
*clefF4	*	*clefF4	*	*clefGv2	*	*clefG2	*	*clefG2	*	*clefG2	*
*k[b-]	*	*k[b-]	*	*k[b-]	*	*k[b-]	*	*k[b-]	*	*k[b-]	*
*F:	*	*F:	*	*F:	*	*F:	*	*F:	*	*F:	*
*M2/1	*	*M2/1	*	*M2/1	*	*M2/1	*	*M2/1	*	*M2/1	*
*met(C|)	*	*met(C|)	*	*met(C|)	*	*met(C|)	*	*met(C|)	*	*met(C|)	*
!!section: Kyrie I
!!!OMD: Kyrie I
=1	=1	=1	=1	=1	=1	=1	=1	=1	=1	=1	=1
!	!	!	!	!LO:TX:a:t=Canon&colon; tenor I/bassus at the fifth	!	!	!	!	!	!LO:TX:a:t=Canon&colon; superius/altus I at the fifth	!
0r	.	0r	.	0r	.	1d	Ky-	0r	.	0dd	Ky-
.	.	.	.	.	.	1f	.	.	.	.	.
=2	=2	=2	=2	=2	=2	=2	=2	=2	=2	=2	=2
0r	.	0r	.	0r	.	1g	-ri-	0r	.	1dd	-ri-
.	.	.	.	.	.	1a	.	.	.	1cc	-e [e-
=3	=3	=3	=3	=3	=3	=3	=3	=3	=3	=3	=3
0r	.	1G	Ky-	0r	.	0d	-e,	0g	Ky-	0dd	-le-
.	.	1B-y	.	.	.	.	.	.	.	.	.
=4	=4	=4	=4	=4	=4	=4	=4	=4	=4	=4	=4
0r	.	1c	-ri-	0r	.	1r	.	1g	-ri-	1ee	.
.	.	1d	.	.	.	[1d	[Ky-	1f	-e [e-	2.ff	.
.	.	.	.	.	.	.	.	.	.	4ee	.
=5	=5	=5	=5	=5	=5	=5	=5	=5	=5	=5	=5
0r	.	0G	-e,	0r	.	1d]	.	0g	-le-	2dd	.
.	.	.	.	.	.	.	.	.	.	2cc	.
.	.	.	.	.	.	1e	-ri	.	.	1b-y	.
=6	=6	=6	=6	=6	=6	=6	=6	=6	=6	=6	=6
0r	.	1r	.	0r	.	1f	e	1a	.	2a	.
.	.	.	.	.	.	.	.	.	.	2cc	.
.	.	[1G	[Ky-	.	.	1d	e-	2.b-y	.	2.dd	.
.	.	.	.	.	.	.	.	4a	.	4cc	.
=7	=7	=7	=7	=7	=7	=7	=7	=7	=7	=7	=7
0r	.	1G]	.	0r	.	2e	-le-	2g	.	4b-y	.
.	.	.	.	.	.	.	.	.	.	4a	.
.	.	.	.	.	.	2d	.	2f	.	1dd	.
.	.	1A	-ri-	.	.	2.a	.	1e	.	.	.
.	.	.	.	.	.	.	.	.	.	2cc	.
.	.	.	.	.	.	4g	.	.	.	.	.
=8	=8	=8	=8	=8	=8	=8	=8	=8	=8	=8	=8
0r	.	1B-y	-e	0r	.	4f	.	2d	.	1.dd	.
.	.	.	.	.	.	4e	.	.	.	.	.
.	.	.	.	.	.	2.d	.	2f	.	.	.
.	.	1G	e-	.	.	.	.	2.g	.	.	.
.	.	.	.	.	.	4c	.	.	.	.	.
.	.	.	.	.	.	2d	.	.	.	2b-y	.
.	.	.	.	.	.	.	.	4f	.	.	.
=9	=9	=9	=9	=9	=9	=9	=9	=9	=9	=9	=9
0r	.	2A	-le-	0r	.	2c	.	4e	.	2cc	.
.	.	.	.	.	.	.	.	4d	.	.	.
.	.	2G	.	.	.	2.d	.	1g	.	2b-y	.
.	.	1d	-i-	.	.	.	.	.	.	1a	.
.	.	.	.	.	.	4e	.	.	.	.	.
.	.	.	.	.	.	2f	.	2f	.	.	.
=10	=10	=10	=10	=10	=10	=10	=10	=10	=10	=10	=10
0r	.	1G	-son,	0r	.	2d	.	1.g	.	1dd	.
.	.	.	.	.	.	1b-y	.	.	.	.	.
.	.	1r	.	.	.	.	.	.	.	2b-y	.
.	.	.	.	.	.	2g	.	2e	.	[2cc	.
=11	=11	=11	=11	=11	=11	=11	=11	=11	=11	=11	=11
0r	.	1r	.	0r	.	2a	.	2f	.	4cc]	.
.	.	.	.	.	.	.	.	.	.	4b-y	.
.	.	.	.	.	.	1g	.	2e	.	2g	.
.	.	2r	.	.	.	.	.	1d	.	1a	.
.	.	2d	e-	.	.	2f	.	.	.	.	.
=12	=12	=12	=12	=12	=12	=12	=12	=12	=12	=12	=12
0r	.	2B-y	-le-	0r	.	2d	.	1g	.	1.g	.
.	.	2.c	.	.	.	1e	.	.	.	.	.
.	.	.	.	.	.	.	.	2e	.	.	.
.	.	4B-y	.	.	.	.	.	.	.	.	.
.	.	4A	.	.	.	2c	.	[2f	.	[2a	.
.	.	4G	.	.	.	.	.	.	.	.	.
=13	=13	=13	=13	=13	=13	=13	=13	=13	=13	=13	=13
0r	.	2.F	.	0r	.	2d	.	4f]	.	4a]	.
.	.	.	.	.	.	.	.	4e	.	4b-y	.
.	.	.	.	.	.	1c	.	2c	.	2cc	.
.	.	4E	.	.	.	.	.	.	.	.	.
.	.	2F	.	.	.	.	.	1d	.	2a	.
.	.	2G	.	.	.	2B-y	.	.	.	2b-y	.
=14	=14	=14	=14	=14	=14	=14	=14	=14	=14	=14	=14
0r	.	2A	.	0r	.	2A	.	1.c	.	2.cc	.
.	.	1F	.	.	.	2.f	.	.	.	.	.
.	.	.	.	.	.	.	.	.	.	4b-y	.
.	.	.	.	.	.	.	.	.	.	4a	.
.	.	.	.	.	.	4e	.	.	.	4g	.
.	.	[2B-y	.	.	.	4d	.	[2d	.	[2f	.
.	.	.	.	.	.	4c	.	.	.	.	.
=15	=15	=15	=15	=15	=15	=15	=15	=15	=15	=15	=15
0r	.	4B-]	.	0r	.	2B-y	.	4d]	.	4f]	.
.	.	4A	.	.	.	.	.	4e	.	4g	.
.	.	2F	.	.	.	2c	.	2f	.	2a	.
.	.	1G	-i-	.	.	2B-y	.	2d	.	1b-y	.
.	.	.	.	.	.	2G	-i-	2e	.	.	.
=16	=16	=16	=16	=16	=16	=16	=16	=16	=16	=16	=16
0r	.	0D	-son,	0d	Ky-	1A	-son,	2.f	.	1a	.
.	.	.	.	.	.	.	.	4e	.	.	.
.	.	.	.	.	.	1r	.	4d	.	[1f	-i-
.	.	.	.	.	.	.	.	4c	.	.	.
.	.	.	.	.	.	.	.	[2B-y	.	.	.
=17	=17	=17	=17	=17	=17	=17	=17	=17	=17	=17	=17
0r	.	0r	.	1d	-ri-	2r	.	4B-]	.	1f]	.
.	.	.	.	.	.	.	.	4c	.	.	.
.	.	.	.	.	.	2a	e-	2d	.	.	.
.	.	.	.	1c	-e e-	1cc	-le-	1e	.	1g	-son,
=18	=18	=18	=18	=18	=18	=18	=18	=18	=18	=18	=18
0G	Ky-	0r	.	0d	-le-	1b-y	.	1d	.	2r	.
.	.	.	.	.	.	.	.	.	.	2.dd	Ky-
.	.	.	.	.	.	[1g	.	[1B-y	-i-	.	.
.	.	.	.	.	.	.	.	.	.	4cc	.
.	.	.	.	.	.	.	.	.	.	4b-y	.
.	.	.	.	.	.	.	.	.	.	4a	.
=19	=19	=19	=19	=19	=19	=19	=19	=19	=19	=19	=19
1G	-ri-	0r	.	1e	.	1g]	.	1B-]	.	2g	.
.	.	.	.	.	.	.	.	.	.	2b-y	-ri-
1F	-e e-	.	.	2.f	.	1a	-i-	1c	-son,	2a	-e e-
.	.	.	.	.	.	.	.	.	.	[2ff	-le-
.	.	.	.	4e	.	.	.	.	.	.	.
=20	=20	=20	=20	=20	=20	=20	=20	=20	=20	=20	=20
0G	-le-	0r	.	2d	.	1b-y	.	2r	.	2ff]	.
.	.	.	.	2c	.	.	.	2.g	Ky-	2ee	.
.	.	.	.	1B-y	.	1g	-son],	.	.	2dd	.
.	.	.	.	.	.	.	.	4f	.	.	.
.	.	.	.	.	.	.	.	4e	.	4cc	.
.	.	.	.	.	.	.	.	4d	.	4b-y	.
=21	=21	=21	=21	=21	=21	=21	=21	=21	=21	=21	=21
1A	.	1r	.	2A	.	0r	.	2c	.	4cc	.
.	.	.	.	.	.	.	.	.	.	4b-y	.
.	.	.	.	2c	.	.	.	2e	-ri-	4a	.
.	.	.	.	.	.	.	.	.	.	4g	.
2.B-y	.	2r	.	2.d	.	.	.	2d	-e e-	2f	.
.	.	[2G	Ky-	.	.	.	.	[2b-y	-le-	[2d	.
4A	.	.	.	4c	.	.	.	.	.	.	.
=22	=22	=22	=22	=22	=22	=22	=22	=22	=22	=22	=22
2G	.	2G]	.	4B-y	.	0r	.	2b-]	.	4d]	.
.	.	.	.	4A	.	.	.	.	.	4e	.
2F	.	2A	-ri-	1d	.	.	.	2a	.	2f	-i-
1E-i	.	2B-y	-e	.	.	.	.	2g	.	1g	-son],
.	.	2G	e-	2c	.	.	.	4f	.	.	.
.	.	.	.	.	.	.	.	4e-i	.	.	.
=23	=23	=23	=23	=23	=23	=23	=23	=23	=23	=23	=23
2D	.	1A	-lei-	1.d	.	1r	.	4f	.	2r	.
.	.	.	.	.	.	.	.	4e-i	.	.	.
2F	.	.	.	.	.	.	.	4d	.	2f	e-
.	.	.	.	.	.	.	.	4c	.	.	.
2.G	.	[1G	-son],	.	.	2r	.	2B-y	.	1d	-le-
.	.	.	.	2B-y	.	2d	e-	[2G	.	.	.
4F	.	.	.	.	.	.	.	.	.	.	.
=24	=24	=24	=24	=24	=24	=24	=24	=24	=24	=24	=24
4E	.	1G]	.	2c	.	2.e	-le-	4G]	.	1g	.
4D	.	.	.	.	.	.	.	4A	.	.	.
1G	.	.	.	2B-y	.	.	.	2B-y	-i-	.	.
.	.	.	.	.	.	4d	.	.	.	.	.
.	.	1r	.	1A	.	2e	.	1c	-son],	1a	.
2F	.	.	.	.	.	2f	.	.	.	.	.
=25	=25	=25	=25	=25	=25	=25	=25	=25	=25	=25	=25
1.G	.	0r	.	1d	.	2d	.	2r	.	1.b-y	.
.	.	.	.	.	.	4g	.	2B-y	e-	.	.
.	.	.	.	.	.	4f	.	.	.	.	.
.	.	.	.	2B-y	.	4e	.	1G	-le-	.	.
.	.	.	.	.	.	4d	.	.	.	.	.
2E	.	.	.	[2c	.	2e	.	.	.	4a	.
.	.	.	.	.	.	.	.	.	.	4g	.
=26	=26	=26	=26	=26	=26	=26	=26	=26	=26	=26	=26
2F	.	1r	.	4c]	.	2c	.	1c	.	4a	.
.	.	.	.	4B-y	.	.	.	.	.	4g	.
2E	.	.	.	2G	.	2e	.	.	.	1g	.
1D	-i-	2r	.	1A	-i-	2f	.	1d	-i-	.	.
.	.	2A	e-	.	.	[2d	.	.	.	2f#i	-i-
=27	=27	=27	=27	=27	=27	=27	=27	=27	=27	=27	=27
[0Gl	-son.	2B-y	-le-	[0Gl	-son.	2d]	.	[0dl	-son.	[0gl	-son.
.	.	2G	.	.	.	1b-y	.	.	.	.	.
.	.	1B-y	-i-	.	.	.	.	.	.	.	.
.	.	.	.	.	.	4a	.	.	.	.	.
.	.	.	.	.	.	4g	-i-	.	.	.	.
=	=	=	=	=	=	=	=	=	=	=	=
00G]	.	00B-y	-son.	00G]	.	00g	-son.	00d]	.	00g]	.
=||	=||	=||	=||	=||	=||	=||	=||	=||	=||	=||	=||
*M2/1	*	*M2/1	*	*M2/1	*	*M2/1	*	*M2/1	*	*M2/1	*
*met(C|)	*	*met(C|)	*	*met(C|)	*	*met(C|)	*	*met(C|)	*	*met(C|)	*
!!section: Christe
!!!OMD: Christe
!	!	!LO:TX:a:t=Canon&colon; bassus/tenor II at the fifth	!	!	!	!	!	!LO:TX:a:t=Canon&colon; altus I/superius at the fifth	!	!	!
0r	.	2r	.	0r	.	2.B-y	Chri-	0d	Chri-	0r	.
.	.	1G	Chri-	.	.	.	.	.	.	.	.
.	.	.	.	.	.	4A	.	.	.	.	.
.	.	.	.	.	.	4B-y	.	.	.	.	.
.	.	.	.	.	.	4c	.	.	.	.	.
.	.	2F	-ste [e-	.	.	[2d	.	.	.	.	.
=28	=28	=28	=28	=28	=28	=28	=28	=28	=28	=28	=28
0r	.	2G	-le-	0r	.	2d]	.	1e	-ste,	0r	.
.	.	2A	.	.	.	2c	.	.	.	.	.
.	.	2.B-y	.	.	.	2d	-ste	1d	.	.	.
.	.	.	.	.	.	2B-y	[e-	.	.	.	.
.	.	4c	-i-	.	.	.	.	.	.	.	.
=29	=29	=29	=29	=29	=29	=29	=29	=29	=29	=29	=29
0r	.	1d	-son,	0r	.	2.f	-le-	2r	.	0a	Chri-
.	.	.	.	.	.	.	.	1d	[Chri-	.	.
.	.	.	.	.	.	4e	.	.	.	.	.
.	.	1r	.	.	.	4f	.	.	.	.	.
.	.	.	.	.	.	4g	.	.	.	.	.
.	.	.	.	.	.	[2a	.	2c	-ste e-	.	.
=30	=30	=30	=30	=30	=30	=30	=30	=30	=30	=30	=30
0r	.	1G	Chri-	0r	.	2a]	.	2d	-le-	1b-y	-ste,
.	.	.	.	.	.	2g	.	2e	.	.	.
.	.	2D	-ste e-	.	.	2.a	.	[1f	.	1a	.
.	.	[2F	-le-	.	.	.	.	.	.	.	.
.	.	.	.	.	.	4b-y	-i-	.	.	.	.
=31	=31	=31	=31	=31	=31	=31	=31	=31	=31	=31	=31
0r	.	4F]	.	0r	.	1cc	-son,	1f]	.	2r	.
.	.	4G	.	.	.	.	.	.	.	.	.
.	.	4A	.	.	.	.	.	.	.	1a	[Chri-
.	.	4B-y	.	.	.	.	.	.	.	.	.
.	.	2c	.	.	.	1r	.	1e	.	.	.
.	.	2C	.	.	.	.	.	.	.	2g	-ste e-
=32	=32	=32	=32	=32	=32	=32	=32	=32	=32	=32	=32
0r	.	2F	.	0r	.	2r	.	1d	.	2a	-le-
.	.	2G	.	.	.	2g	e-	.	.	2b-y	.
.	.	2.A	.	.	.	2e	-le-	2.c	.	[1cc	.
.	.	.	.	.	.	[2a	.	.	.	.	.
.	.	4B-y	.	.	.	.	.	4d	.	.	.
=33	=33	=33	=33	=33	=33	=33	=33	=33	=33	=33	=33
0r	.	2c	.	0r	.	4a]	.	2e	.	1cc]	.
.	.	.	.	.	.	4g	.	.	.	.	.
.	.	2A	.	.	.	2a	.	2f	.	.	.
.	.	2.B-y	.	.	.	2f	.	2d	.	1b-y	.
.	.	.	.	.	.	[2d	.	[2g	.	.	.
.	.	4c	-i-	.	.	.	.	.	.	.	.
=34	=34	=34	=34	=34	=34	=34	=34	=34	=34	=34	=34
0r	.	1d	-son,	0r	.	4d]	.	2g]	.	1a	.
.	.	.	.	.	.	4e	.	.	.	.	.
.	.	.	.	.	.	4f	.	2f	-i-	.	.
.	.	.	.	.	.	4d	.	.	.	.	.
.	.	1r	.	.	.	2.e	.	1g	-son,	2.g	.
.	.	.	.	.	.	4f	.	.	.	4a	.
=35	=35	=35	=35	=35	=35	=35	=35	=35	=35	=35	=35
0r	.	0r	.	0r	.	2g	.	2r	.	2b-y	.
.	.	.	.	.	.	2e	.	2c	e-	2cc	.
.	.	.	.	.	.	2.f	.	1d	-le-	2a	.
.	.	.	.	.	.	.	.	.	.	[2dd	.
.	.	.	.	.	.	4g	.	.	.	.	.
=36	=36	=36	=36	=36	=36	=36	=36	=36	=36	=36	=36
0r	.	1A	Chri-	0r	.	2a	.	1e	.	2dd]	.
.	.	.	.	.	.	1A	.	.	.	2cc#i	-i-
.	.	2F	-ste e-	.	.	.	.	1d	.	1dd	-son,
.	.	[2G	-le-	.	.	[2B-y	.	.	.	.	.
=37	=37	=37	=37	=37	=37	=37	=37	=37	=37	=37	=37
0r	.	2G]	.	0r	.	2B-]	.	1.g	.	2r	.
.	.	4F	.	.	.	4A	.	.	.	2g	e-
.	.	4E	.	.	.	4G	.	.	.	.	.
.	.	1D	-i-	.	.	[1d	.	.	.	1a	-le-
.	.	.	.	.	.	.	.	2f	.	.	.
=38	=38	=38	=38	=38	=38	=38	=38	=38	=38	=38	=38
0r	.	1G	-son,	0r	.	2d]	.	1g	.	1b-y	.
.	.	.	.	.	.	2e	.	.	.	.	.
.	.	1r	.	.	.	2.f	.	[1d	.	1a	.
.	.	.	.	.	.	4g	.	.	.	.	.
=39	=39	=39	=39	=39	=39	=39	=39	=39	=39	=39	=39
0r	.	2r	.	0r	.	2a	.	1d]	.	1.dd	.
.	.	1G	Chri-	.	.	1b-y	.	.	.	.	.
.	.	.	.	.	.	.	.	1e	.	.	.
.	.	2A	-ste e-	.	.	4a	.	.	.	2cc	.
.	.	.	.	.	.	4g	-i-	.	.	.	.
=40	=40	=40	=40	=40	=40	=40	=40	=40	=40	=40	=40
0r	.	2.B-y	-le-	0r	.	1f	-son,	1.d	.	1dd	.
.	.	8AL	.	.	.	.	.	.	.	.	.
.	.	8GJ	.	.	.	.	.	.	.	.	.
.	.	2.F	.	.	.	2r	.	.	.	[1a	.
.	.	.	.	.	.	2f	Chri-	4c	.	.	.
.	.	4G	.	.	.	.	.	4B-y	.	.	.
=41	=41	=41	=41	=41	=41	=41	=41	=41	=41	=41	=41
0r	.	2A	.	0r	.	2e	.	1c	.	1a]	.
.	.	2F	.	.	.	2f	.	.	.	.	.
.	.	1G	.	.	.	2.d	-ste,	2.B-y	.	1b-y	.
.	.	.	.	.	.	4e	.	4c	-i-	.	.
=42	=42	=42	=42	=42	=42	=42	=42	=42	=42	=42	=42
0D	Chri-	2.F	.	0r	.	0f	.	1d	-son,	1.a	.
.	.	4G	.	.	.	.	.	.	.	.	.
.	.	2A	.	.	.	.	.	2r	.	.	.
.	.	[2B-y	.	.	.	.	.	[2d	Chri-	4g	.
.	.	.	.	.	.	.	.	.	.	4f	.
=43	=43	=43	=43	=43	=43	=43	=43	=43	=43	=43	=43
1E	-ste,	2B-]	.	0r	.	0r	.	2d]	.	1g	.
.	.	4A	.	.	.	.	.	2c	.	.	.
.	.	4G	.	.	.	.	.	.	.	.	.
1D	.	4A	.	.	.	.	.	2.d	-ste,	2.f	.
.	.	4G	.	.	.	.	.	.	.	.	.
.	.	4F	.	.	.	.	.	.	.	.	.
.	.	4E	.	.	.	.	.	4e	.	4g	-i-
=44	=44	=44	=44	=44	=44	=44	=44	=44	=44	=44	=44
2r	.	2D	.	0A	Chri-	0r	.	1f	.	1a	-son,
1D	[Chri-	1F	.	.	.	.	.	.	.	.	.
.	.	.	.	.	.	.	.	1r	.	2r	.
2C	-ste e-	2E	.	.	.	.	.	.	.	[2a	Chri-
=45	=45	=45	=45	=45	=45	=45	=45	=45	=45	=45	=45
2D	-le-	2F	.	1B-y	-ste,	1r	.	0r	.	2a]	.
2E	.	2G	.	.	.	.	.	.	.	2g	.
[1F	.	2D	.	1A	.	1d	Chri-	.	.	2.a	-ste,
.	.	[2F	.	.	.	.	.	.	.	.	.
.	.	.	.	.	.	.	.	.	.	4b-y	.
=46	=46	=46	=46	=46	=46	=46	=46	=46	=46	=46	=46
1F]	.	2F]	.	2r	.	2.c	-ste	0r	.	1cc	.
.	.	4E	.	1A	[Chri-	.	.	.	.	.	.
.	.	4D	-i-	.	.	4d	.	.	.	.	.
1E	.	1C	-son,	.	.	1e	.	.	.	1r	.
.	.	.	.	2G	-ste e-	.	.	.	.	.	.
=47	=47	=47	=47	=47	=47	=47	=47	=47	=47	=47	=47
1D	.	0r	.	2A	-le-	1f	e-	1d	Chri-	0r	.
.	.	.	.	2B-y	.	.	.	.	.	.	.
2.C	.	.	.	[1c	.	2.e	-le-	[1g	-ste	.	.
4D	.	.	.	.	.	4f	.	.	.	.	.
=48	=48	=48	=48	=48	=48	=48	=48	=48	=48	=48	=48
2E	.	0r	.	1c]	.	2g	.	2g]	.	0r	.
2F	.	.	.	.	.	1f	.	2a	e-	.	.
2D	.	.	.	1B-y	.	.	.	1b-y	-le-	.	.
[2G	.	.	.	.	.	4e	.	.	.	.	.
.	.	.	.	.	.	4d	.	.	.	.	.
=49	=49	=49	=49	=49	=49	=49	=49	=49	=49	=49	=49
2G]	.	2r	.	1A	.	2e	.	1cc	-i-	1a	Chri-
2F	-i-	2A	e-	.	.	2f	-i-	.	.	.	.
1G	-son],	2B-y	-le-	2.G	.	1d	-son,	1b-y	.	[1dd	-ste
.	.	[2G	.	.	.	.	.	.	.	.	.
.	.	.	.	4A	.	.	.	.	.	.	.
=50	=50	=50	=50	=50	=50	=50	=50	=50	=50	=50	=50
2r	.	4G]	.	2B-y	.	0r	.	1g	-son],	2dd]	.
.	.	4F	.	.	.	.	.	.	.	.	.
2C	e-	2G	.	2c	.	.	.	.	.	2ee	e-
1D	-le-	2F	.	2A	.	.	.	1r	.	1ff	-le-
.	.	[2B-y	.	[2d	.	.	.	.	.	.	.
=51	=51	=51	=51	=51	=51	=51	=51	=51	=51	=51	=51
1E	.	4B-]	.	2d]	.	1r	.	2.G	e-	1gg	-i-
.	.	4G	.	.	.	.	.	.	.	.	.
.	.	2c	-i-	2c	-i-	.	.	.	.	.	.
.	.	.	.	.	.	.	.	4A	.	.	.
1D	.	1F	-son],	1d	-son],	2r	.	4B-y	.	1ff	.
.	.	.	.	.	.	.	.	4c	.	.	.
.	.	.	.	.	.	2a	e-	[2d	.	.	.
=52	=52	=52	=52	=52	=52	=52	=52	=52	=52	=52	=52
1.G	.	0r	.	2r	.	1.b-y	-le-	2d]	.	1dd	-son],
.	.	.	.	2G	e-	.	.	4c	.	.	.
.	.	.	.	.	.	.	.	4B-y	.	.	.
.	.	.	.	1A	-le-	.	.	1c	-le-	1r	.
2F	.	.	.	.	.	2a	.	.	.	.	.
=53	=53	=53	=53	=53	=53	=53	=53	=53	=53	=53	=53
1G	.	0r	.	1B-y	.	1g	-i-	2B-y	.	2.d	e-
.	.	.	.	.	.	.	.	1d	.	.	.
.	.	.	.	.	.	.	.	.	.	4e	.
[1D	.	.	.	1A	.	[1f	-son],	.	.	4f	.
.	.	.	.	.	.	.	.	.	.	4g	.
.	.	.	.	.	.	.	.	4c	.	[2a	.
.	.	.	.	.	.	.	.	4B-y	.	.	.
=54	=54	=54	=54	=54	=54	=54	=54	=54	=54	=54	=54
1D]	.	1r	.	1.d	.	1f]	.	2A	.	2a]	.
.	.	.	.	.	.	.	.	2B-y	.	4g	.
.	.	.	.	.	.	.	.	.	.	4f	.
1E	-i-	2r	.	.	.	1r	.	2.G	.	1g	-lei-
.	.	2C	e-	2c	.	.	.	.	.	.	.
.	.	.	.	.	.	.	.	4A	.	.	.
=55	=55	=55	=55	=55	=55	=55	=55	=55	=55	=55	=55
[0Dl	-son.	2.F	-le-	1d	.	2r	.	2B-y	.	[0fl	-son.
.	.	.	.	.	.	2a	e-	2A	.	.	.
.	.	4G	.	.	.	.	.	.	.	.	.
.	.	2A	.	[1A	.	2.a	-le-	1d	-i-	.	.
.	.	[2F	.	.	.	.	.	.	.	.	.
.	.	.	.	.	.	4g	.	.	.	.	.
=56	=56	=56	=56	=56	=56	=56	=56	=56	=56	=56	=56
0D_	.	4F]	.	1A]	.	2a	.	[0dl	-son.	0f_	.
.	.	4E	.	.	.	.	.	.	.	.	.
.	.	4D	.	.	.	1f	.	.	.	.	.
.	.	4C	.	.	.	.	.	.	.	.	.
.	.	1BB-y	-i-	1B-y	-i-	.	.	.	.	.	.
.	.	.	.	.	.	4e	.	.	.	.	.
.	.	.	.	.	.	4d	-i-	.	.	.	.
=	=	=	=	=	=	=	=	=	=	=	=
00D]	.	00F	-son.	00A	-son.	00a	-son.	00d]	.	00f]	.
=||	=||	=||	=||	=||	=||	=||	=||	=||	=||	=||	=||
*M2/1	*	*M2/1	*	*M2/1	*	*M2/1	*	*M2/1	*	*M2/1	*
*met(C|)	*	*met(C|)	*	*met(C|)	*	*met(C|)	*	*met(C|)	*	*met(C|)	*
!!section: Kyrie II
!!!OMD: Kyrie II
!	!	!	!	!LO:TX:a:t=Canon&colon; tenor II/bassus at the fifth	!	!	!	!	!	!LO:TX:a:t=Canon&colon; superius/altus I at the fifth	!
0r	.	0r	.	2r	.	1G	Ky-	0r	.	0r	.
.	.	.	.	2G	Ky-	.	.	.	.	.	.
.	.	.	.	2F	-ri-	2A	-ri-	.	.	.	.
.	.	.	.	[2A	-e [e-	2F	-e [e-	.	.	.	.
=57	=57	=57	=57	=57	=57	=57	=57	=57	=57	=57	=57
0r	.	0r	.	4A]	.	2G	-le-	0r	.	0r	.
.	.	.	.	4G	.	.	.	.	.	.	.
.	.	.	.	1G	-le-	2B-y	.	.	.	.	.
.	.	.	.	.	.	1A	.	.	.	.	.
.	.	.	.	2F	.	.	.	.	.	.	.
=58	=58	=58	=58	=58	=58	=58	=58	=58	=58	=58	=58
2r	.	1C	Ky-	1G	.	[0G	-i-	0r	.	0r	.
2C	Ky-	.	.	.	.	.	.	.	.	.	.
2BB-y	-ri-	2D	-ri-	1d	.	.	.	.	.	.	.
[2D	-e [e-	2BB-y	-e [e-	.	.	.	.	.	.	.	.
=59	=59	=59	=59	=59	=59	=59	=59	=59	=59	=59	=59
4D]	.	2C	-le-	1e	.	1G]	.	0r	.	0r	.
4C	.	.	.	.	.	.	.	.	.	.	.
1C	-le-	2E	.	.	.	.	.	.	.	.	.
.	.	1D	-i-	1f	.	1d	-son,	.	.	.	.
2BB-y	.	.	.	.	.	.	.	.	.	.	.
=60	=60	=60	=60	=60	=60	=60	=60	=60	=60	=60	=60
1C	.	0C	-son,	2e	.	2r	.	0r	.	0r	.
.	.	.	.	2.g	.	2.e	Ky-	.	.	.	.
1G	.	.	.	.	.	.	.	.	.	.	.
.	.	.	.	4f	.	4f	.	.	.	.	.
.	.	.	.	[2e	.	2g	-ri-	.	.	.	.
=61	=61	=61	=61	=61	=61	=61	=61	=61	=61	=61	=61
1A	.	2r	.	2e]	.	2e	-e e-	0r	.	0r	.
.	.	2F	e-	4d	.	1f	-le-	.	.	.	.
.	.	.	.	4c	.	.	.	.	.	.	.
1B-y	.	2D	-le-	1d	.	.	.	.	.	.	.
.	.	2BB-y	-i-	.	.	2g	.	.	.	.	.
=62	=62	=62	=62	=62	=62	=62	=62	=62	=62	=62	=62
2A	.	0F	-son,	1c	.	1.a	.	0r	.	0r	.
2.c	.	.	.	.	.	.	.	.	.	.	.
.	.	.	.	2.A	.	.	.	.	.	.	.
4B-y	.	.	.	.	.	.	.	.	.	.	.
[2A	.	.	.	.	.	4g	.	.	.	.	.
.	.	.	.	4B-y	.	4f	.	.	.	.	.
=63	=63	=63	=63	=63	=63	=63	=63	=63	=63	=63	=63
2A]	.	1r	.	2c	.	2e	.	0r	.	0r	.
4G	.	.	.	2d	.	2f	.	.	.	.	.
4F	.	.	.	.	.	.	.	.	.	.	.
1G	.	2r	.	1B-y	-i-	2d	.	.	.	.	.
.	.	[2d	Ky-	.	.	2B-y	.	.	.	.	.
=64	=64	=64	=64	=64	=64	=64	=64	=64	=64	=64	=64
1F	.	2d]	.	0A	-son,	0f	.	0r	.	0r	.
.	.	2c	-ri-	.	.	.	.	.	.	.	.
2.D	.	2.d	-e e-	.	.	.	.	.	.	.	.
4E	.	4c	.	.	.	.	.	.	.	.	.
=65	=65	=65	=65	=65	=65	=65	=65	=65	=65	=65	=65
2F	.	2A	-le-	2r	.	1d	.	0r	.	0r	.
2G	.	1B-y	.	1d	Ky-	.	.	.	.	.	.
1E	-i-	.	.	.	.	1g	.	.	.	.	.
.	.	4A	.	2c	-ri-	.	.	.	.	.	.
.	.	4G	.	.	.	.	.	.	.	.	.
=66	=66	=66	=66	=66	=66	=66	=66	=66	=66	=66	=66
0D	-son,	2A	.	2d	-e	2f	.	0r	.	0r	.
.	.	1G	.	2B-y	e-	2.d	.	.	.	.	.
.	.	.	.	1A	-le-	.	.	.	.	.	.
.	.	.	.	.	.	4c	.	.	.	.	.
.	.	2F#i	-i-	.	.	2A	.	.	.	.	.
=67	=67	=67	=67	=67	=67	=67	=67	=67	=67	=67	=67
2r	.	1G	-son,	2G	.	2.B-y	.	0r	.	0r	.
1G	Ky-	.	.	2B-y	-i-	.	.	.	.	.	.
.	.	.	.	.	.	4c	.	.	.	.	.
.	.	1D	.	1A	-son,	4d	.	.	.	.	.
.	.	.	.	.	.	4e	.	.	.	.	.
2F	-ri-	.	.	.	.	[2d	.	.	.	.	.
=68	=68	=68	=68	=68	=68	=68	=68	=68	=68	=68	=68
2G	-e	0r	.	2r	.	2d]	.	0r	.	2r	.
2E	e-	.	.	2G	Ky-	2c	.	.	.	2g	Ky-
1D	-le-	.	.	2A	-ri-	4d	.	.	.	2f	-ri-
.	.	.	.	.	.	4e	.	.	.	.	.
.	.	.	.	2F	-e e-	4f	.	.	.	[2a	-e [e-
.	.	.	.	.	.	4d	.	.	.	.	.
=69	=69	=69	=69	=69	=69	=69	=69	=69	=69	=69	=69
2C	.	1r	.	1G	-lei-	2e	.	0r	.	4a]	.
.	.	.	.	.	.	.	.	.	.	4g	.
2E	-i-	.	.	.	.	2c	.	.	.	1g	-le-
1D	-son,	2r	.	1A	.	[1d	.	.	.	.	.
.	.	2A	e-	.	.	.	.	.	.	2f	.
=70	=70	=70	=70	=70	=70	=70	=70	=70	=70	=70	=70
2r	.	2B-y	-le-	1G	-son,	2d]	.	2r	.	1g	.
2C	Ky-	4A	.	.	.	2e	-i-	2c	Ky-	.	.
.	.	4G	.	.	.	.	.	.	.	.	.
2D	-ri-	2F	.	1r	.	1f	-son,	2B-y	-ri-	1dd	.
2BB-y	-e e-	2B-y	.	.	.	.	.	[2d	-e [e-	.	.
=71	=71	=71	=71	=71	=71	=71	=71	=71	=71	=71	=71
1C	-lei-	4A	.	0r	.	0r	.	4d]	.	1ee	.
.	.	4G	.	.	.	.	.	4c	.	.	.
.	.	1G	.	.	.	.	.	1c	-le-	.	.
1D	.	.	.	.	.	.	.	.	.	1ff	.
.	.	2F	-i-	.	.	.	.	2B-y	.	.	.
=72	=72	=72	=72	=72	=72	=72	=72	=72	=72	=72	=72
1C	-son,	1G	-son,	0r	.	2r	.	1c	.	2ee	.
.	.	.	.	.	.	2.e	Ky-	.	.	2.gg	.
1r	.	1C	.	.	.	.	.	1g	.	.	.
.	.	.	.	.	.	4d	.	.	.	4ff	.
.	.	.	.	.	.	4c	.	.	.	[2ee	.
.	.	.	.	.	.	4B-y	.	.	.	.	.
=73	=73	=73	=73	=73	=73	=73	=73	=73	=73	=73	=73
0r	.	1r	.	0r	.	2c	.	1a	.	2ee]	.
.	.	.	.	.	.	2F	-ri-	.	.	4dd	.
.	.	.	.	.	.	.	.	.	.	4cc	.
.	.	1BB-y	e-	.	.	[1f	-e,	1b-y	.	1dd	.
=74	=74	=74	=74	=74	=74	=74	=74	=74	=74	=74	=74
0r	.	1F	-le-	0r	.	1f]	.	2a	.	1cc	.
.	.	.	.	.	.	.	.	2.cc	.	.	.
.	.	2.F	.	.	.	2r	.	.	.	2.a	.
.	.	.	.	.	.	.	.	4b-y	.	.	.
.	.	.	.	.	.	[2f	Ky-	[2a	.	.	.
.	.	4G	.	.	.	.	.	.	.	4b-y	.
=75	=75	=75	=75	=75	=75	=75	=75	=75	=75	=75	=75
0r	.	2A	.	0r	.	2f]	.	2a]	.	2cc	.
.	.	2B-y	.	.	.	2d	-ri-	4g	.	2dd	.
.	.	.	.	.	.	.	.	4f	.	.	.
.	.	1G	-i-	.	.	1d	-e,	1g	.	1b-y	-i-
=76	=76	=76	=76	=76	=76	=76	=76	=76	=76	=76	=76
0r	.	1d	-son,	0r	.	2r	.	1f	.	0a	-son,
.	.	.	.	.	.	2d	e-	.	.	.	.
.	.	2r	.	.	.	2.f	-le-	2.d	.	.	.
.	.	[2d	Ky-	.	.	.	.	.	.	.	.
.	.	.	.	.	.	4g	.	4e	.	.	.
=77	=77	=77	=77	=77	=77	=77	=77	=77	=77	=77	=77
0r	.	4d]	.	0r	.	2a	.	2f	.	2r	.
.	.	4c	.	.	.	.	.	.	.	.	.
.	.	4B-y	.	.	.	1b-y	.	2g	.	1dd	Ky-
.	.	4A	.	.	.	.	.	.	.	.	.
.	.	2G	-ri-	.	.	.	.	1e	-i-	.	.
.	.	2A	-e e-	.	.	[2a	.	.	.	2cc	-ri-
=78	=78	=78	=78	=78	=78	=78	=78	=78	=78	=78	=78
0r	.	2F	-le-	0r	.	2a]	.	0d	-son,	2dd	-e
.	.	2G	-i-	.	.	1g	.	.	.	2b-y	e-
.	.	1D	-son,	.	.	.	.	.	.	1a	-le-
.	.	.	.	.	.	2f	.	.	.	.	.
=79	=79	=79	=79	=79	=79	=79	=79	=79	=79	=79	=79
0r	.	1G	.	0r	.	2e	.	2r	.	2g	.
.	.	.	.	.	.	2d	.	1g	Ky-	2b-y	-i-
.	.	1r	.	.	.	2c	.	.	.	1a	-son,
.	.	.	.	.	.	2d	-i-	2f	-ri-	.	.
=80	=80	=80	=80	=80	=80	=80	=80	=80	=80	=80	=80
0r	.	0r	.	1g	Ky-	1G	-son,	2g	-e	2r	.
.	.	.	.	.	.	.	.	2e	e-	2g	Ky-
.	.	.	.	2f	-ri-	1r	.	1d	-le-	2a	-ri-
.	.	.	.	2d	-e e-	.	.	.	.	2f	-e e-
=81	=81	=81	=81	=81	=81	=81	=81	=81	=81	=81	=81
0r	.	0r	.	2e	-le-	1r	.	2c	.	1g	-lei-
.	.	.	.	1g	.	.	.	2e	-i-	.	.
.	.	.	.	.	.	2r	.	1d	-son,	1a	.
.	.	.	.	2f#i	.	2d	e-	.	.	.	.
=82	=82	=82	=82	=82	=82	=82	=82	=82	=82	=82	=82
1c	Ky-	1r	.	2g	.	2.e	-le-	2r	.	1g	-son,
.	.	.	.	2e	-i-	.	.	2c	Ky-	.	.
.	.	.	.	.	.	4f	.	.	.	.	.
2B-y	-ri-	1G	Ky-	1d	-son,	2g	.	2d	-ri-	1r	.
2G	-e e-	.	.	.	.	2b-y	.	2B-y	-e e-	.	.
=83	=83	=83	=83	=83	=83	=83	=83	=83	=83	=83	=83
2A	-le-	2F	-ri-	1r	.	2a	.	1c	-lei-	0r	.
1c	.	2A	-e e-	.	.	2f	.	.	.	.	.
.	.	4G	-le-	1G	Ky-	1g	.	1d	.	.	.
.	.	4A	.	.	.	.	.	.	.	.	.
2B-y	.	4B-y	.	.	.	.	.	.	.	.	.
.	.	4G	.	.	.	.	.	.	.	.	.
=84	=84	=84	=84	=84	=84	=84	=84	=84	=84	=84	=84
2c	.	2A	.	1c	.	2.e	.	1c	-son,	0r	.
2A	-i-	2c	.	.	.	.	.	.	.	.	.
.	.	.	.	.	.	4f	.	.	.	.	.
1G	-son,	2d	.	1B-y	-ri-	2g	.	1r	.	.	.
.	.	2B-y	.	.	.	2d	.	.	.	.	.
=85	=85	=85	=85	=85	=85	=85	=85	=85	=85	=85	=85
1r	.	2.c	.	2.A	-e e-	1.e	.	0r	.	0r	.
.	.	4B-y	.	4B-y	.	.	.	.	.	.	.
1C	Ky-	2A	.	4c	.	.	.	.	.	.	.
.	.	.	.	4d	.	.	.	.	.	.	.
.	.	2G	.	[2e	.	[2c	.	.	.	.	.
=86	=86	=86	=86	=86	=86	=86	=86	=86	=86	=86	=86
1F	.	2A	.	4e]	.	2c]	.	0r	.	0r	.
.	.	.	.	4d	.	.	.	.	.	.	.
.	.	2F	.	1d	-le-	2d	.	.	.	.	.
1E	-ri-	1G	.	.	.	2e	.	.	.	.	.
.	.	.	.	2c	.	2g	-i-	.	.	.	.
=87	=87	=87	=87	=87	=87	=87	=87	=87	=87	=87	=87
2.D	-e e-	2A	.	2d	.	1f	-son,	0r	.	0r	.
.	.	2.D	.	2B-y	.	.	.	.	.	.	.
4E	.	.	.	.	.	.	.	.	.	.	.
4F	.	.	.	1A	.	2r	.	.	.	.	.
4G	.	4E	.	.	.	.	.	.	.	.	.
[2A	.	2F	.	.	.	2f	Ky-	.	.	.	.
=88	=88	=88	=88	=88	=88	=88	=88	=88	=88	=88	=88
4A]	.	2.G	.	2.B-y	.	2e	-ri-	0r	.	0r	.
4G	.	.	.	.	.	.	.	.	.	.	.
1G	-le-	.	.	.	.	2.d	-e e-	.	.	.	.
.	.	4F	.	4A	.	.	.	.	.	.	.
.	.	2D	.	2B-y	.	.	.	.	.	.	.
.	.	.	.	.	.	4e	.	.	.	.	.
2F	.	2c	.	[2A	.	2f	.	.	.	.	.
=89	=89	=89	=89	=89	=89	=89	=89	=89	=89	=89	=89
2G	.	2B-y	.	4A]	.	2d	-le-	0r	.	0r	.
.	.	.	.	4G	.	.	.	.	.	.	.
2E	.	4A	.	1G	.	2c	.	.	.	.	.
.	.	4G	.	.	.	.	.	.	.	.	.
1D	.	1A	.	.	.	2.d	.	.	.	.	.
.	.	.	.	2F	.	.	.	.	.	.	.
.	.	.	.	.	.	4c	.	.	.	.	.
=90	=90	=90	=90	=90	=90	=90	=90	=90	=90	=90	=90
2.E	.	1G	.	2G	.	4B-y	.	0r	.	0r	.
.	.	.	.	.	.	4A	.	.	.	.	.
.	.	.	.	2B-y	.	1G	.	.	.	.	.
4D	.	.	.	.	.	.	.	.	.	.	.
2E	.	2C	.	2c	.	.	.	.	.	.	.
[2D	.	2F	.	2d	-i-	2A	.	.	.	.	.
=91	=91	=91	=91	=91	=91	=91	=91	=91	=91	=91	=91
4D]	.	2E	.	1G	-son,	2B-y	.	0r	.	0r	.
4C	.	.	.	.	.	.	.	.	.	.	.
1C	.	4D	.	.	.	2c	.	.	.	.	.
.	.	4C	.	.	.	.	.	.	.	.	.
.	.	1D	.	1r	.	2G	.	.	.	.	.
2BB-y	.	.	.	.	.	2f	.	.	.	.	.
=92	=92	=92	=92	=92	=92	=92	=92	=92	=92	=92	=92
2C	.	2C	.	1G	Ky-	2e	.	0r	.	1gg	Ky-
2E	.	2G	.	.	.	1c	.	.	.	.	.
2F	.	2A	.	1d	.	.	.	.	.	2ff	-ri-
2G	-i-	2B-y	.	.	.	2B-y	-i-	.	.	2dd	-e e-
=93	=93	=93	=93	=93	=93	=93	=93	=93	=93	=93	=93
1C	-son,	2.G	.	2c	-ri-	1c	-son,	0r	.	2ee	-le-
.	.	.	.	2e	-e e-	.	.	.	.	1gg	.
.	.	4A	.	.	.	.	.	.	.	.	.
1r	.	1B-y	-i-	4d	-le-	1r	.	.	.	.	.
.	.	.	.	4e	.	.	.	.	.	.	.
.	.	.	.	4f	.	.	.	.	.	2ff	.
.	.	.	.	4d	.	.	.	.	.	.	.
=94	=94	=94	=94	=94	=94	=94	=94	=94	=94	=94	=94
1C	Ky-	0G	-son,	2e	.	2r	.	1cc	Ky-	2gg	.
.	.	.	.	2c	.	4G	Ky-	.	.	2ee	-i-
.	.	.	.	.	.	4A	.	.	.	.	.
1G	.	.	.	2.d	.	4B-y	.	2b-y	-ri-	1dd	-son],
.	.	.	.	.	.	4c	.	.	.	.	.
.	.	.	.	.	.	4d	.	2g	-e e-	.	.
.	.	.	.	4c	-i-	4e	.	.	.	.	.
=95	=95	=95	=95	=95	=95	=95	=95	=95	=95	=95	=95
2F	-ri-	0r	.	1A	-son],	2f	.	2a	-le-	1r	.
2A	-e e-	.	.	.	.	2c	-ri-	1cc	.	.	.
4G	-le-	.	.	1r	.	1d	-e e-	.	.	1g	e-
4A	.	.	.	.	.	.	.	.	.	.	.
4B-y	.	.	.	.	.	.	.	2b-y	.	.	.
4G	.	.	.	.	.	.	.	.	.	.	.
=96	=96	=96	=96	=96	=96	=96	=96	=96	=96	=96	=96
2A	.	2r	.	0r	.	2c	-le-	2cc	.	1cc	.
2F	.	2A	Ky-	.	.	1f	.	2a	-i-	.	.
2.G	.	2.B-y	-ri-	.	.	.	.	1g	-son],	1b-y	-le-
.	.	.	.	.	.	2e	.	.	.	.	.
4F	-i-	4c	.	.	.	.	.	.	.	.	.
=97	=97	=97	=97	=97	=97	=97	=97	=97	=97	=97	=97
1D	-son],	2d	.	1d	e-	2.f	.	1r	.	2.a	.
.	.	2D	-e e-	.	.	.	.	.	.	.	.
.	.	.	.	.	.	4g	.	.	.	4b-y	.
1r	.	1A	-le-	1c	-le-	2e	.	1c	e-	4cc	.
.	.	.	.	.	.	.	.	.	.	4dd	.
.	.	.	.	.	.	2a	.	.	.	[2ee	.
=98	=98	=98	=98	=98	=98	=98	=98	=98	=98	=98	=98
0r	.	1B-y	-i-	1d	.	2f	.	1f	.	4ee]	.
.	.	.	.	.	.	.	.	.	.	4dd	.
.	.	.	.	.	.	2b-y	-i-	.	.	1dd	.
.	.	1c	.	1A	.	1a	-son,	1e	-le-	.	.
.	.	.	.	.	.	.	.	.	.	2cc	.
=99	=99	=99	=99	=99	=99	=99	=99	=99	=99	=99	=99
1G	e-	1G	-son,	2B-y	.	2r	.	2.d	.	2dd	.
.	.	.	.	2G	.	2.d	e-	.	.	2b-y	.
.	.	.	.	.	.	.	.	4e	.	.	.
1F	-le-	1r	.	1A	.	.	.	4f	.	1a	.
.	.	.	.	.	.	4e	.	4g	.	.	.
.	.	.	.	.	.	2f	.	[2a	.	.	.
=100	=100	=100	=100	=100	=100	=100	=100	=100	=100	=100	=100
1G	.	2r	.	1d	.	2.B-y	-lei-	4a]	.	2.b-y	.
.	.	.	.	.	.	.	.	4g	.	.	.
.	.	2.B-y	Ky-	.	.	.	.	1g	.	.	.
.	.	.	.	.	.	4c	.	.	.	4a	.
1D	.	.	.	1d	.	2d	.	.	.	2b-y	.
.	.	4c	.	.	.	.	.	.	.	.	.
.	.	2d	-ri-	.	.	2A	-son],	2f	.	[2a	.
=101	=101	=101	=101	=101	=101	=101	=101	=101	=101	=101	=101
2E-X	.	1G	-e],	2B-y	.	2r	.	2g	.	4a]	.
.	.	.	.	.	.	.	.	.	.	4g	.
2C	.	.	.	2c	.	2e	e-	2e	.	1g	.
1D	-i-	2r	.	1A	-i-	2f	-le-	1d	-i-	.	.
.	.	2A	e-	.	.	[2d	.	.	.	2f#i	-i-
=102	=102	=102	=102	=102	=102	=102	=102	=102	=102	=102	=102
[0Gl	-son.	2B-y	-le-	[0Gl	-son.	4d]	.	[0dl	-son.	[0gl	-son.
.	.	.	.	.	.	4c	.	.	.	.	.
.	.	2.d	.	.	.	4B-y	.	.	.	.	.
.	.	.	.	.	.	4A	.	.	.	.	.
.	.	.	.	.	.	2B-y	.	.	.	.	.
.	.	4c	.	.	.	.	.	.	.	.	.
.	.	4B-y	.	.	.	2G	-i-	.	.	.	.
.	.	4A	-i-	.	.	.	.	.	.	.	.
=103	=103	=103	=103	=103	=103	=103	=103	=103	=103	=103	=103
00G]	.	00B-yl	-son.	00G]	.	00dl	-son.	00d]	.	00g]	.
==	==	==	==	==	==	==	==	==	==	==	==
*-	*-	*-	*-	*-	*-	*-	*-	*-	*-	*-	*-
!!!system-decoration: [*]
!!!RDF**kern: i = editorial accidental
!!!RDF**kern: l = terminal long
!!!ENC: Benjamin Ory
!!!END: 2021/2/2
!!!EED: Benjamin Ory
!!!EEV: 2021/05/21
!!!YEC: Copyright 2021 Benjamin Ory, All Rights Reserved
!!!ONB: Translated from MusicXML on 2021/05/21
